; generated by PrusaSlicer 2.3.3 on 2021-09-24 at 16:04:18 UTC

; 

; external perimeters extrusion width = 0.45mm
; perimeters extrusion width = 0.45mm
; infill extrusion width = 0.45mm
; solid infill extrusion width = 0.45mm
; top infill extrusion width = 0.40mm
; support material extrusion width = 0.35mm
; first layer extrusion width = 0.42mm

M73 P0 R47
M73 Q0 S48
M201 X1000 Y1000 Z200 E5000 ; sets maximum accelerations, mm/sec^2
M203 X200 Y200 Z12 E120 ; sets maximum feedrates, mm/sec
M204 P1250 R1250 T1250 ; sets acceleration (P, T) and retract acceleration (R), mm/sec^2
M205 X8.00 Y8.00 Z0.40 E4.50 ; sets the jerk limits, mm/sec
M205 S0 T0 ; sets the minimum extruding and travel feed rate, mm/sec
M107
;TYPE:Custom
M862.3 P "MK3" ; printer model check
M862.1 P0.4 ; nozzle diameter check
M115 U3.10.0 ; tell printer latest fw version
G90 ; use absolute coordinates
M83 ; extruder relative mode
M104 S215 ; set extruder temp
M140 S60 ; set bed temp
M190 S60 ; wait for bed temp
M109 S215 ; wait for extruder temp
G28 W ; home all without mesh bed level
G80 ; mesh bed leveling
G1 Y-3.0 F1000.0 ; go outside print area
G92 E0.0
G1 X60.0 E9.0 F1000.0 ; intro line
G1 X100.0 E12.5 F1000.0 ; intro line
G92 E0.0
M221 S95

; Don't change E values below. Excessive value can damage the printer.

G21 ; set units to millimeters
G90 ; use absolute coordinates
M83 ; use relative distances for extrusion
M900 K0.05 ; Filament gcode LA 1.5
M900 K30 ; Filament gcode LA 1.0
;LAYER_CHANGE
;Z:0.25
;HEIGHT:0.25
;BEFORE_LAYER_CHANGE
G92 E0.0
;0.25


G1 E-0.80000 F2100.000
G1 Z0.400 F10800.000
;AFTER_LAYER_CHANGE
;0.25
G1 X83.954 Y43.012
G1 Z0.250
G1 E0.80000 F2100.000
M204 S1000
;TYPE:Skirt
;WIDTH:0.42
G1 F1200.000
G1 X84.413 Y42.373 E0.02996
G1 X85.057 Y41.920 E0.02996
G1 X85.813 Y41.703 E0.02996
G1 X102.202 Y41.688 E0.62405
G1 X114.295 Y41.882 E0.46054
G1 X115.020 Y42.123 E0.02910
G1 X115.631 Y42.583 E0.02910
G1 X116.063 Y43.213 E0.02910
G1 X116.272 Y43.949 E0.02910
G1 X116.287 Y57.233 E0.50585
G1 X114.849 Y151.036 E3.57221
M73 Q0 S47
G1 X114.613 Y152.071 E0.04042
G1 X114.269 Y152.738 E0.02857
G1 X113.936 Y153.156 E0.02036
G1 X113.372 Y153.678 E0.02927
G1 X112.690 Y154.058 E0.02971
G1 X112.217 Y154.233 E0.01921
G1 X111.545 Y154.348 E0.02597
G1 X88.462 Y154.349 E0.87895
G1 X87.778 Y154.232 E0.02643
G1 X87.295 Y154.050 E0.01964
G1 X86.612 Y153.666 E0.02984
G1 X86.023 Y153.114 E0.03072
G1 X85.707 Y152.697 E0.01993
G1 X85.358 Y151.999 E0.02972
G1 X85.136 Y150.852 E0.04450
G1 X83.713 Y57.070 E3.57140
G1 X83.730 Y43.766 E0.50658
G1 X83.937 Y43.069 E0.02768
; printing object semi_kamera_dings.stl id:0 copy 0
;WIPE_START
G1 F8640.000
G1 X84.413 Y42.373 E-0.19482
G1 X85.057 Y41.920 E-0.18168
G1 X85.813 Y41.703 E-0.18168
G1 X86.687 Y41.702 E-0.20183
;WIPE_END
G1 E-0.04000 F2100.000
G1 Z0.650 F10800.000
G1 X86.079 Y44.054
G1 Z0.250
G1 E0.80000 F2100.000
;TYPE:Support material
G1 F1200.000
G1 X86.079 Y57.038 E0.49439
G1 X86.811 Y57.038 E0.02790
G1 X86.811 Y44.219 E0.48811
G1 X87.544 Y44.219 E0.02790
G1 X87.544 Y57.203 E0.49439
G1 X94.138 Y57.203 F10800.000
G1 F1200.000
G1 X94.138 Y53.448 E0.14297
G1 X93.885 Y53.408 E0.00978
G1 X93.406 Y53.408 E0.01824
G1 X93.406 Y57.038 E0.13821
G1 X92.673 Y57.038 E0.02790
G1 X92.673 Y53.408 E0.13821
G1 X91.940 Y53.408 E0.02790
G1 X91.940 Y57.038 E0.13821
G1 X91.208 Y57.038 E0.02790
G1 X91.208 Y53.408 E0.13821
G1 X90.475 Y53.408 E0.02790
G1 X90.475 Y57.038 E0.13821
G1 X89.742 Y57.038 E0.02790
G1 X89.742 Y53.386 E0.13907
G1 X89.374 Y53.317 E0.01427
G1 X89.010 Y53.131 E0.01556
G1 X89.010 Y57.038 E0.14875
G1 X88.277 Y57.038 E0.02790
G1 X88.277 Y44.219 E0.48811
G1 X89.010 Y44.219 E0.02790
G1 X89.010 Y47.592 E0.12843
G1 X89.742 Y47.592 E0.02790
G1 X89.742 Y44.219 E0.12843
G1 X90.475 Y44.219 E0.02790
G1 X90.475 Y47.592 E0.12843
G1 X91.208 Y47.592 E0.02790
G1 X91.208 Y44.219 E0.12843
G1 X91.940 Y44.219 E0.02790
G1 X91.940 Y47.592 E0.12843
G1 X92.673 Y47.592 E0.02790
G1 X92.673 Y44.219 E0.12843
G1 X93.406 Y44.219 E0.02790
G1 X93.406 Y47.592 E0.12843
G1 X94.138 Y47.592 E0.02790
G1 X94.138 Y44.219 E0.12843
G1 X94.871 Y44.219 E0.02790
G1 X94.871 Y47.592 E0.12843
G1 X95.604 Y47.592 E0.02790
G1 X95.604 Y44.219 E0.12843
G1 X96.337 Y44.219 E0.02790
G1 X96.337 Y47.592 E0.12843
M73 P1 R47
M73 Q1 S47
G1 X97.069 Y47.592 E0.02790
G1 X97.069 Y44.219 E0.12843
G1 X97.802 Y44.219 E0.02790
G1 X97.802 Y47.757 E0.13470
;WIPE_START
G1 F8640.000
G1 X97.802 Y44.465 E-0.76000
;WIPE_END
G1 E-0.04000 F2100.000
G1 Z0.650 F10800.000
G1 X102.198 Y44.054
G1 Z0.250
G1 E0.80000 F2100.000
G1 F1200.000
G1 X102.198 Y47.592 E0.13470
G1 X102.931 Y47.592 E0.02790
G1 X102.931 Y44.219 E0.12843
G1 X103.663 Y44.219 E0.02790
G1 X103.663 Y47.592 E0.12843
G1 X104.396 Y47.592 E0.02790
G1 X104.396 Y44.219 E0.12843
G1 X105.129 Y44.219 E0.02790
G1 X105.129 Y47.592 E0.12843
G1 X105.862 Y47.592 E0.02790
G1 X105.862 Y44.219 E0.12843
G1 X106.594 Y44.219 E0.02790
G1 X106.594 Y47.592 E0.12843
G1 X107.327 Y47.592 E0.02790
G1 X107.327 Y44.219 E0.12843
G1 X108.060 Y44.219 E0.02790
G1 X108.060 Y47.592 E0.12843
G1 X108.792 Y47.592 E0.02790
G1 X108.792 Y44.219 E0.12843
G1 X109.525 Y44.219 E0.02790
G1 X109.525 Y47.592 E0.12843
G1 X110.258 Y47.592 E0.02790
G1 X110.258 Y44.219 E0.12843
G1 X110.990 Y44.219 E0.02790
G1 X110.990 Y47.757 E0.13470
;WIPE_START
G1 F8640.000
G1 X110.990 Y44.465 E-0.76000
;WIPE_END
G1 E-0.04000 F2100.000
G1 Z0.650 F10800.000
G1 X113.921 Y57.203
G1 Z0.250
G1 E0.80000 F2100.000
G1 F1200.000
G1 X113.921 Y44.219 E0.49439
G1 X113.189 Y44.219 E0.02790
G1 X113.189 Y57.038 E0.48811
G1 X112.456 Y57.038 E0.02790
G1 X112.456 Y44.219 E0.48811
G1 X111.723 Y44.219 E0.02790
G1 X111.723 Y57.038 E0.48811
G1 X110.990 Y57.038 E0.02790
G1 X110.990 Y53.131 E0.14875
G1 X110.626 Y53.317 E0.01556
G1 X110.258 Y53.386 E0.01427
G1 X110.258 Y57.038 E0.13907
G1 X109.525 Y57.038 E0.02790
G1 X109.525 Y53.408 E0.13821
G1 X108.792 Y53.408 E0.02790
G1 X108.792 Y57.038 E0.13821
G1 X108.060 Y57.038 E0.02790
G1 X108.060 Y53.408 E0.13821
G1 X107.327 Y53.408 E0.02790
G1 X107.327 Y57.038 E0.13821
G1 X106.594 Y57.038 E0.02790
G1 X106.594 Y53.408 E0.13821
G1 X106.115 Y53.408 E0.01824
G1 X105.862 Y53.448 E0.00978
G1 X105.862 Y57.203 E0.14297
;WIPE_START
G1 F8640.000
G1 X105.862 Y53.911 E-0.76000
;WIPE_END
G1 E-0.04000 F2100.000
G1 Z0.650 F10800.000
G1 X110.775 Y136.116
G1 Z0.250
G1 E0.80000 F2100.000
;TYPE:External perimeter
G1 F1200.000
G1 X111.042 Y136.199 E0.01066
G1 X111.287 Y136.336 E0.01067
G1 X111.493 Y136.523 E0.01061
G1 X111.657 Y136.747 E0.01058
G1 X111.764 Y137.009 E0.01078
G1 X111.819 Y137.500 E0.01880
G1 X111.764 Y137.991 E0.01880
G1 X111.657 Y138.253 E0.01078
G1 X111.493 Y138.477 E0.01058
G1 X111.287 Y138.664 E0.01061
G1 X111.042 Y138.801 E0.01067
G1 X110.776 Y138.884 E0.01058
G1 X110.500 Y138.912 E0.01058
G1 X110.224 Y138.884 E0.01058
G1 X109.958 Y138.801 E0.01058
G1 X109.714 Y138.664 E0.01067
G1 X109.507 Y138.477 E0.01061
G1 X109.343 Y138.253 E0.01058
G1 X109.236 Y137.991 E0.01078
G1 X109.181 Y137.500 E0.01880
G1 X109.236 Y137.009 E0.01880
G1 X109.343 Y136.747 E0.01078
G1 X109.507 Y136.523 E0.01058
G1 X109.714 Y136.336 E0.01061
G1 X109.958 Y136.200 E0.01067
G1 X110.223 Y136.116 E0.01058
G1 X110.472 Y136.091 E0.00952
G1 X110.715 Y136.111 E0.00926
G1 X110.960 Y135.906 F10800.000
;WIPE_START
G1 F8640.000
G1 X111.042 Y136.199 E-0.07822
G1 X111.287 Y136.336 E-0.06468
G1 X111.493 Y136.523 E-0.06434
G1 X111.657 Y136.747 E-0.06418
G1 X111.764 Y137.009 E-0.06538
G1 X111.819 Y137.500 E-0.11399
G1 X111.764 Y137.991 E-0.11399
G1 X111.657 Y138.253 E-0.06538
G1 X111.493 Y138.477 E-0.06418
G1 X111.287 Y138.664 E-0.06434
G1 X111.282 Y138.667 E-0.00130
;WIPE_END
G1 E-0.04000 F2100.000
G1 Z0.650 F10800.000
G1 X111.743 Y138.745
G1 Z0.250
G1 E0.80000 F2100.000
;TYPE:Perimeter
G1 F1200.000
G1 X111.725 Y139.240 E0.01885
G1 X111.725 Y148.260 E0.34348
G1 X111.743 Y148.755 E0.01885
G1 X111.501 Y148.536 E0.01241
G1 X111.187 Y148.361 E0.01370
G1 X110.845 Y148.254 E0.01365
G1 X110.469 Y148.223 E0.01438
G1 X110.149 Y148.256 E0.01221
G1 X109.813 Y148.361 E0.01343
G1 X109.499 Y148.536 E0.01370
G1 X109.257 Y148.755 E0.01241
G1 X109.275 Y148.266 E0.01863
G1 X109.275 Y139.267 E0.34268
G1 X109.258 Y138.745 E0.01986
G1 X109.499 Y138.964 E0.01240
G1 X109.813 Y139.139 E0.01370
G1 X110.150 Y139.245 E0.01343
G1 X110.500 Y139.280 E0.01341
G1 X110.850 Y139.245 E0.01341
G1 X111.187 Y139.139 E0.01343
G1 X111.501 Y138.964 E0.01370
G1 X111.698 Y138.785 E0.01013
;WIPE_START
G1 F8640.000
G1 X111.725 Y139.240 E-0.10510
G1 X111.725 Y142.076 E-0.65490
;WIPE_END
G1 E-0.04000 F2100.000
G1 Z0.650 F10800.000
G1 X110.775 Y148.616
G1 Z0.250
G1 E0.80000 F2100.000
;TYPE:External perimeter
G1 F1200.000
G1 X111.042 Y148.700 E0.01066
G1 X111.287 Y148.836 E0.01067
G1 X111.493 Y149.023 E0.01061
G1 X111.657 Y149.247 E0.01058
G1 X111.762 Y149.504 E0.01056
G1 X111.806 Y149.765 E0.01006
G1 X111.806 Y150.236 E0.01796
G1 X111.759 Y150.499 E0.01014
G1 X111.648 Y150.756 E0.01067
G1 X111.472 Y150.972 E0.01061
G1 X111.256 Y151.148 E0.01061
G1 X110.999 Y151.259 E0.01067
G1 X110.736 Y151.306 E0.01014
G1 X110.264 Y151.306 E0.01799
G1 X110.001 Y151.259 E0.01014
G1 X109.744 Y151.148 E0.01067
G1 X109.528 Y150.972 E0.01061
G1 X109.352 Y150.756 E0.01061
G1 X109.241 Y150.499 E0.01067
G1 X109.194 Y150.236 E0.01014
G1 X109.194 Y149.765 E0.01796
G1 X109.238 Y149.504 E0.01006
G1 X109.343 Y149.247 E0.01056
G1 X109.507 Y149.023 E0.01058
G1 X109.714 Y148.836 E0.01061
G1 X109.958 Y148.700 E0.01067
G1 X110.223 Y148.616 E0.01058
G1 X110.472 Y148.591 E0.00952
G1 X110.715 Y148.611 E0.00926
G1 X110.960 Y148.406 F10800.000
;WIPE_START
G1 F8640.000
G1 X111.042 Y148.700 E-0.07823
G1 X111.287 Y148.836 E-0.06467
G1 X111.493 Y149.023 E-0.06434
G1 X111.657 Y149.247 E-0.06419
G1 X111.762 Y149.504 E-0.06401
G1 X111.806 Y149.765 E-0.06103
G1 X111.806 Y150.236 E-0.10893
G1 X111.759 Y150.499 E-0.06151
G1 X111.648 Y150.756 E-0.06472
G1 X111.472 Y150.972 E-0.06435
G1 X111.257 Y151.147 E-0.06402
;WIPE_END
G1 E-0.04000 F2100.000
G1 Z0.650 F10800.000
G1 X90.762 Y149.504
G1 Z0.250
G1 E0.80000 F2100.000
G1 F1200.000
G1 X90.806 Y149.765 E0.01006
G1 X90.806 Y150.236 E0.01796
G1 X90.759 Y150.499 E0.01014
G1 X90.648 Y150.756 E0.01067
G1 X90.472 Y150.972 E0.01061
G1 X90.256 Y151.148 E0.01061
G1 X89.999 Y151.259 E0.01067
G1 X89.736 Y151.306 E0.01014
G1 X89.264 Y151.306 E0.01799
G1 X89.001 Y151.259 E0.01014
G1 X88.744 Y151.148 E0.01067
G1 X88.528 Y150.972 E0.01061
G1 X88.352 Y150.756 E0.01061
G1 X88.241 Y150.499 E0.01067
G1 X88.194 Y150.236 E0.01014
G1 X88.194 Y149.765 E0.01796
G1 X88.238 Y149.504 E0.01006
G1 X88.343 Y149.247 E0.01056
G1 X88.507 Y149.023 E0.01058
G1 X88.713 Y148.836 E0.01061
G1 X88.958 Y148.700 E0.01067
G1 X89.223 Y148.616 E0.01058
G1 X89.472 Y148.591 E0.00952
G1 X89.775 Y148.616 E0.01155
G1 X90.042 Y148.700 E0.01066
G1 X90.286 Y148.836 E0.01067
G1 X90.493 Y149.023 E0.01061
G1 X90.657 Y149.247 E0.01058
G1 X90.739 Y149.448 E0.00827
G1 X91.018 Y149.567 F10800.000
G1 X90.734 Y148.747
;TYPE:Perimeter
G1 F1200.000
G1 X90.501 Y148.536 E0.01196
G1 X90.187 Y148.361 E0.01370
G1 X89.845 Y148.254 E0.01365
G1 X89.469 Y148.223 E0.01438
G1 X89.149 Y148.256 E0.01221
G1 X88.813 Y148.361 E0.01343
G1 X88.499 Y148.536 E0.01370
G1 X88.266 Y148.747 E0.01194
G1 X88.275 Y139.240 E0.36201
G1 X88.257 Y138.745 E0.01885
G1 X88.499 Y138.964 E0.01241
G1 X88.813 Y139.139 E0.01370
G1 X89.150 Y139.245 E0.01343
G1 X89.500 Y139.280 E0.01341
G1 X89.850 Y139.245 E0.01341
G1 X90.187 Y139.139 E0.01343
G1 X90.501 Y138.964 E0.01370
G1 X90.736 Y138.751 E0.01208
G1 X90.733 Y148.687 E0.37834
;WIPE_START
G1 F8640.000
G1 X90.501 Y148.536 E-0.06379
G1 X90.187 Y148.361 E-0.08306
G1 X89.845 Y148.254 E-0.08277
G1 X89.469 Y148.223 E-0.08719
G1 X89.149 Y148.256 E-0.07407
G1 X88.813 Y148.361 E-0.08144
G1 X88.499 Y148.536 E-0.08306
G1 X88.266 Y148.747 E-0.07243
G1 X88.267 Y148.174 E-0.13218
;WIPE_END
G1 E-0.04000 F2100.000
G1 Z0.650 F10800.000
M73 P1 R46
G1 X89.776 Y138.884
G1 Z0.250
G1 E0.80000 F2100.000
;TYPE:External perimeter
G1 F1200.000
G1 X89.500 Y138.912 E0.01058
G1 X89.224 Y138.884 E0.01058
G1 X88.958 Y138.801 E0.01058
G1 X88.713 Y138.664 E0.01067
G1 X88.507 Y138.477 E0.01061
G1 X88.343 Y138.253 E0.01058
G1 X88.236 Y137.991 E0.01078
G1 X88.181 Y137.500 E0.01880
G1 X88.236 Y137.009 E0.01880
G1 X88.343 Y136.747 E0.01078
G1 X88.507 Y136.523 E0.01058
G1 X88.713 Y136.336 E0.01061
G1 X88.958 Y136.200 E0.01067
G1 X89.223 Y136.116 E0.01058
G1 X89.472 Y136.091 E0.00952
G1 X89.775 Y136.116 E0.01155
G1 X90.042 Y136.199 E0.01066
G1 X90.287 Y136.336 E0.01067
G1 X90.493 Y136.523 E0.01061
G1 X90.657 Y136.747 E0.01058
G1 X90.764 Y137.009 E0.01078
G1 X90.819 Y137.500 E0.01880
G1 X90.764 Y137.991 E0.01880
G1 X90.657 Y138.253 E0.01078
G1 X90.493 Y138.477 E0.01058
G1 X90.287 Y138.664 E0.01061
G1 X90.042 Y138.801 E0.01067
G1 X89.834 Y138.866 E0.00830
G1 X89.689 Y139.147 F10800.000
;WIPE_START
G1 F8640.000
G1 X89.500 Y138.912 E-0.07778
G1 X89.224 Y138.884 E-0.06416
G1 X88.958 Y138.801 E-0.06418
G1 X88.713 Y138.664 E-0.06468
G1 X88.507 Y138.477 E-0.06434
G1 X88.343 Y138.253 E-0.06418
G1 X88.236 Y137.991 E-0.06538
G1 X88.181 Y137.500 E-0.11399
G1 X88.236 Y137.009 E-0.11399
G1 X88.343 Y136.747 E-0.06538
G1 X88.348 Y136.740 E-0.00192
;WIPE_END
G1 E-0.04000 F2100.000
G1 Z0.650 F10800.000
G1 X90.732 Y136.246
G1 Z0.250
G1 E0.80000 F2100.000
;TYPE:Perimeter
G1 F1200.000
G1 X90.501 Y136.036 E0.01188
G1 X90.187 Y135.861 E0.01370
G1 X89.845 Y135.754 E0.01365
G1 X89.469 Y135.723 E0.01438
G1 X89.149 Y135.756 E0.01221
G1 X88.813 Y135.861 E0.01343
G1 X88.499 Y136.036 E0.01370
G1 X88.257 Y136.255 E0.01241
G1 X88.275 Y135.760 E0.01885
G1 X88.276 Y129.311 E0.24557
G1 X88.309 Y129.107 E0.00789
G1 X88.375 Y128.977 E0.00553
G1 X88.477 Y128.875 E0.00553
G1 X88.607 Y128.809 E0.00553
G1 X88.811 Y128.776 E0.00788
G1 X95.978 Y128.776 E0.27290
G1 X96.547 Y128.686 E0.02192
G1 X97.113 Y128.393 E0.02429
G1 X97.558 Y127.936 E0.02430
G1 X97.836 Y127.362 E0.02429
G1 X97.911 Y126.791 E0.02192
G1 X95.974 Y54.168 E2.76630
G1 X95.870 Y53.603 E0.02188
G1 X95.569 Y53.042 E0.02422
G1 X95.113 Y52.599 E0.02422
G1 X94.545 Y52.313 E0.02422
G1 X93.977 Y52.224 E0.02188
G1 X89.978 Y52.224 E0.15230
G1 X89.773 Y52.191 E0.00788
G1 X89.644 Y52.125 E0.00553
G1 X89.541 Y52.023 E0.00553
G1 X89.475 Y51.893 E0.00553
G1 X89.443 Y51.689 E0.00788
G1 X89.443 Y48.776 E0.11090
G1 X110.557 Y48.776 E0.80397
G1 X110.557 Y51.689 E0.11090
G1 X110.525 Y51.893 E0.00788
G1 X110.459 Y52.023 E0.00553
G1 X110.356 Y52.125 E0.00553
G1 X110.227 Y52.191 E0.00553
G1 X110.022 Y52.224 E0.00788
G1 X106.023 Y52.224 E0.15230
G1 X105.455 Y52.313 E0.02188
G1 X104.887 Y52.599 E0.02422
G1 X104.431 Y53.042 E0.02422
G1 X104.130 Y53.603 E0.02422
G1 X104.026 Y54.168 E0.02188
G1 X102.089 Y126.791 E2.76630
G1 X102.164 Y127.362 E0.02192
G1 X102.442 Y127.936 E0.02429
G1 X102.887 Y128.393 E0.02430
G1 X103.453 Y128.686 E0.02429
G1 X104.022 Y128.776 E0.02192
G1 X111.189 Y128.776 E0.27290
G1 X111.393 Y128.809 E0.00788
G1 X111.523 Y128.875 E0.00553
G1 X111.625 Y128.977 E0.00553
G1 X111.691 Y129.107 E0.00553
G1 X111.724 Y129.311 E0.00789
G1 X111.725 Y135.760 E0.24557
G1 X111.743 Y136.255 E0.01885
G1 X111.501 Y136.036 E0.01241
G1 X111.187 Y135.861 E0.01370
G1 X110.845 Y135.754 E0.01365
G1 X110.469 Y135.723 E0.01438
G1 X110.150 Y135.756 E0.01221
G1 X109.813 Y135.861 E0.01343
G1 X109.499 Y136.036 E0.01370
G1 X109.265 Y136.248 E0.01200
G1 X109.277 Y133.230 E0.11491
M73 P2 R46
G1 X109.186 Y132.661 E0.02194
M73 Q2 S47
G1 X108.898 Y132.093 E0.02425
G1 X108.448 Y131.642 E0.02425
G1 X107.881 Y131.352 E0.02425
G1 X107.313 Y131.261 E0.02190
G1 X92.691 Y131.226 E0.55678
G1 X92.122 Y131.315 E0.02190
G1 X91.554 Y131.603 E0.02426
G1 X91.103 Y132.053 E0.02426
G1 X90.814 Y132.621 E0.02426
G1 X90.724 Y133.189 E0.02192
G1 X90.730 Y136.186 E0.11409
;WIPE_START
G1 F8640.000
G1 X90.501 Y136.036 E-0.06303
G1 X90.187 Y135.861 E-0.08307
G1 X89.845 Y135.754 E-0.08277
G1 X89.469 Y135.723 E-0.08719
G1 X89.149 Y135.756 E-0.07406
G1 X88.813 Y135.861 E-0.08144
G1 X88.499 Y136.036 E-0.08307
G1 X88.257 Y136.255 E-0.07527
G1 X88.275 Y135.760 E-0.11429
